X: 41651
T: Up Wi Eli Eli
R: slip jig
M: 9/8
K: Dmixolydian
D2d A2F A2F|D2d A2F G2E|D2d A2F A2B|cBc E2F GFE:|
D2D FEF AGF|D2D E2F GFE|D2D FEF AGF|AGA E2F GFE:|
d2A F2A D2A|d2A D2f gfe|d2A F2A G2B|cBc E2 F GFE:|

